X:66
T:Padraig O'Keefe's
T:Bank of Turf, The
R:slide
H:Also played as a jig (#93)
Z:id:hn-slide-66
M:6/8
K:D
ABA DFA | BAF DFA | ~d3 ede | fef def | ~g3 gab |
afd Bcd |1 e2A efd | cBA Bcd :|2 ABd efe | d3 dcd ||
|: e3 efg | f3 fga | gfe fed | edB ABd |
e3 efg | f3 fga | gfe dcB |1 ~A3 ABd :|2 AFA Bcd ||

